svgs/regular/beer-mug-empty.svg

<svg xmlns="http://www.w3.org/2000/svg" viewBox="0 0 512 512"><!-- Font Awesome Pro 6.0.0-alpha2 by @fontawesome - https://fontawesome.com License - https://fontawesome.com/license (Commercial License) --><path d="M424 96H384V64C384 46.327 369.673 32 352 32H64C46.327 32 32 46.327 32 64V400C32 444.183 67.817 480 112 480H304C348.183 480 384 444.183 384 400V383.695L459.26 350.775C491.298 336.761 512 305.109 512 270.141V184C512 135.399 472.601 96 424 96ZM336 400C336 417.673 321.673 432 304 432H112C94.327 432 80 417.673 80 400V80H336V400ZM464 270.141C464 286.031 454.594 300.422 440.031 306.797L384 331.307V144H424C446.062 144 464 161.938 464 184V270.141ZM128 368V144C128 135.156 135.156 128 144 128S160 135.156 160 144V368C160 376.844 152.844 384 144 384S128 376.844 128 368ZM192 368V144C192 135.156 199.156 128 208 128S224 135.156 224 144V368C224 376.844 216.844 384 208 384S192 376.844 192 368ZM256 368V144C256 135.156 263.156 128 272 128S288 135.156 288 144V368C288 376.844 280.844 384 272 384S256 376.844 256 368Z"/></svg>

<svg xmlns="http://www.w3.org/2000/svg" viewBox="0 0 512 512"><!--! Font Awesome Pro 6.0.0-alpha3 by @fontawesome - https://fontawesome.com License - https://fontawesome.com/license (Commercial License) --><path d="M424 96H384V64c0-17.67-14.33-32-32-32H64C46.33 32 32 46.33 32 64v336C32 444.2 67.82 480 112 480h192c44.18 0 80-35.82 80-80v-16.08l75.26-33.15C491.3 336.8 512 305.1 512 270.1V184C512 135.4 472.6 96 424 96zM336 400c0 17.67-14.33 32-32 32h-192c-17.67 0-32-14.33-32-32v-320h256V400zM464 270.1c0 15.89-9.406 30.28-23.97 36.66L384 331.3V144h40c22.06 0 40 17.94 40 40V270.1zM128 368v-224C128 135.2 135.2 128 144 128S160 135.2 160 144v224C160 376.8 152.8 384 144 384S128 376.8 128 368zM192 368v-224C192 135.2 199.2 128 208 128S224 135.2 224 144v224C224 376.8 216.8 384 208 384S192 376.8 192 368zM256 368v-224C256 135.2 263.2 128 272 128S288 135.2 288 144v224c0 8.844-7.156 16-16 16S256 376.8 256 368z"/></svg>
